src/symbolic/categories/preferences-bluetooth-symbolic.svg

<?xml version="1.0" encoding="UTF-8" standalone="no"?>
<svg
   xmlns:dc="http://purl.org/dc/elements/1.1/"
   xmlns:cc="http://creativecommons.org/ns#"
   xmlns:rdf="http://www.w3.org/1999/02/22-rdf-syntax-ns#"
   xmlns:svg="http://www.w3.org/2000/svg"
   xmlns="http://www.w3.org/2000/svg"
   height="16"
   width="16"
   version="1.1"
   id="svg6">
  <metadata
     id="metadata12">
    <rdf:RDF>
      <cc:Work
         rdf:about="">
        <dc:format>image/svg+xml</dc:format>
        <dc:type
           rdf:resource="http://purl.org/dc/dcmitype/StillImage" />
        <dc:title></dc:title>
      </cc:Work>
    </rdf:RDF>
  </metadata>
  <defs
     id="defs10" />
  <path
     style="opacity:1;fill:#555761;stroke-width:1"
     d="M 8.0039062 0 C 7.6702017 0.00013804 7.3370011 0.024670175 6.9355469 0.07421875 C 4.0621617 0.42885966 2.5901146 2.1159663 2.1074219 5.6054688 C 1.8934275 7.1524897 2.0161516 10.48084 2.3339844 11.722656 C 2.9190008 14.008394 4.0877205 15.31619 6.0136719 15.841797 C 7.0085365 16.113304 9.6214606 16.01994 10.511719 15.681641 C 12.202729 15.039055 13.211031 13.704981 13.744141 11.404297 C 13.982771 10.374468 14.085842 6.9887018 13.916016 5.7421875 C 13.424975 2.1379948 11.965976 0.43160913 9.0703125 0.07421875 C 8.6715389 0.025000635 8.3376109 -0.00013804 8.0039062 0 z M 7.3320312 2.9785156 C 7.4934765 2.9785156 8.0781274 2.9977996 8.21875 3.1132812 L 10.810547 5.3769531 C 10.889791 5.4486203 10.938524 5.5501534 10.964844 5.6464844 C 10.974854 5.6832933 10.986181 5.7198555 10.988281 5.7578125 C 10.991081 5.7879355 10.990381 5.8175352 10.988281 5.8476562 C 10.984191 5.8861102 10.977264 5.9238165 10.964844 5.9609375 C 10.937699 6.0570279 10.890417 6.1575636 10.810547 6.2285156 L 8.7265625 8 L 10.810547 9.7714844 C 10.890411 9.8424309 10.937674 9.9429655 10.964844 10.039062 C 10.977254 10.07615 10.984081 10.113884 10.988281 10.152344 C 10.990381 10.182474 10.991081 10.212058 10.988281 10.242188 C 10.986241 10.280134 10.974864 10.316706 10.964844 10.353516 C 10.938524 10.449843 10.889797 10.551377 10.810547 10.623047 L 8.21875 12.886719 C 8.064396 13.007213 7.5313118 13.021484 7.3320312 13.021484 C 7.136575 13.021484 7.0195312 12.860817 7.0195312 12.662109 L 7.0195312 9.1660156 L 5.7675781 10.242188 C 5.5468044 10.438315 5.2319785 10.398273 5.0390625 10.173828 C 4.8461465 9.9493833 4.8632107 9.6082353 5.0839844 9.4121094 L 6.671875 8 L 5.0839844 6.5878906 C 4.8632107 6.3917583 4.8461466 6.0506183 5.0390625 5.8261719 C 5.2319785 5.6017327 5.5468044 5.5616515 5.7675781 5.7578125 L 7.0195312 6.8339844 L 7.0195312 3.3378906 C 7.021723 3.1391954 7.1365751 2.9785156 7.3320312 2.9785156 z M 7.9902344 4.3730469 L 7.9902344 7.1621094 L 9.6855469 5.8027344 L 7.9902344 4.3730469 z M 7.9902344 8.8378906 L 7.9902344 11.626953 L 9.6855469 10.197266 L 7.9902344 8.8378906 z "
     id="path896" />
</svg>

<svg xmlns="http://www.w3.org/2000/svg" height="16" width="16"><path d="M8.004 0a8.56 8.56 0 0 0-1.068.074C4.062.43 2.59 2.116 2.107 5.605c-.214 1.547-.09 4.876.227 6.118.585 2.285 1.754 3.593 3.68 4.119.995.271 3.607.178 4.498-.16 1.69-.643 2.699-1.977 3.232-4.278.239-1.03.342-4.415.172-5.662-.491-3.604-1.95-5.31-4.846-5.668A8.507 8.507 0 0 0 8.004 0zm-.672 2.979c.161 0 .746.019.887.134l2.592 2.264c.079.072.128.173.154.27.01.036.021.073.023.11a.55.55 0 0 1-.023.204.557.557 0 0 1-.154.268L8.727 8l2.084 1.771c.08.071.127.172.154.268a.538.538 0 0 1 .023.203c-.002.038-.013.075-.023.112a.563.563 0 0 1-.154.269l-2.592 2.264c-.155.12-.688.134-.887.134-.195 0-.312-.16-.312-.359V9.166l-1.252 1.076c-.221.196-.536.156-.729-.068a.546.546 0 0 1 .045-.762L6.672 8 5.084 6.588a.546.546 0 0 1-.045-.762c.193-.224.508-.264.729-.068L7.02 6.834V3.338c.002-.199.117-.36.312-.36zm.658 1.394v2.79l1.696-1.36-1.696-1.43zm0 4.465v2.789l1.696-1.43-1.696-1.36z" fill="#555761"/></svg>
